X: 49
T:Pleasures of Home Reel
M:4/4
L:1/8
Z:abc by Bruce Osborne - bosborne@kos.net
K:G
dc|BGDG BGDG|BGBc d2 cB|AFDF AFDF|AFAB c2 dc|!
BGDG BGDG|BGBc d2 cB|AFAc BGAF|D2 GF G2:|!
|:GA|BABc dedc|BGBc d2 cB|AFDF AFDF|AFAB c2 dc|!
BGBc dedc|BGBc d2 eg|fdcA FGAF|D2 GF G2:|!
